X:1
T:Wedding March (A Midsummer Night's Dream)
C:Felix Mendelssohn
M:4/4
L:1/4
Q:1/4=120
K:C
{GG}C E G c|c2 G2|{GG}E G c2|C4|E3/2E/ E2|G c B2|A3/2G/ F2|E4|E3/2E/ E2|G c B2|c B A G|E4|D3/2D/ D2|F B B2|c3/2B/ A G|C4|]
